ufans-frontend-package/public/assets/images/new-home/icon/date-icon.svg

<svg width="96" height="93" viewBox="0 0 96 93" fill="none" xmlns="http://www.w3.org/2000/svg">
<path fill-rule="evenodd" clip-rule="evenodd" d="M37.6709 0C26.2617 0 17.0127 9.24901 17.0127 20.6582C17.0127 32.0675 26.2617 41.3165 37.6709 41.3165C49.0801 41.3165 58.3292 32.0675 58.3292 20.6582C58.3292 9.24901 49.0801 0 37.6709 0ZM24.3038 20.6582C24.3038 13.2758 30.2885 7.29114 37.6709 7.29114C45.0534 7.29114 51.038 13.2758 51.038 20.6582C51.038 28.0407 45.0534 34.0253 37.6709 34.0253C30.2885 34.0253 24.3038 28.0407 24.3038 20.6582Z" fill="#6661E7"/>
<path d="M7.29114 66.8372C7.29114 60.7972 12.1877 55.9005 18.2278 55.9005H19.8847C20.0128 55.9005 20.1402 55.9209 20.2619 55.9603L24.469 57.3344C27.772 58.413 31.1741 59.076 34.5991 59.3239C35.3198 59.3764 35.9524 58.87 36.1152 58.1661C36.4826 56.5781 36.9611 55.0324 37.5421 53.5382C37.7987 52.8786 37.3166 52.1495 36.6092 52.1281C33.2718 52.0275 29.9454 51.4524 26.7322 50.4035L22.5251 49.0293C21.6726 48.7513 20.7815 48.6094 19.8847 48.6094H18.2278C8.16087 48.6094 0 56.7701 0 66.8372V72.6133C0 76.2744 2.65339 79.396 6.26683 79.9861C16.7571 81.699 27.3524 82.5477 37.947 82.5326C38.6858 82.5316 39.1505 81.733 38.8195 81.072C38.1059 79.6458 37.4892 78.1623 36.9787 76.6302C36.7056 75.8112 35.9545 75.2356 35.0909 75.224C25.842 75.0966 16.6003 74.2854 7.44168 72.7902C7.35486 72.7761 7.29114 72.7012 7.29114 72.6133V66.8372Z" fill="#6661E7"/>
<path d="M72.9113 58.5753C72.9113 56.5614 71.279 54.9297 69.2657 54.9297C67.2524 54.9297 65.6201 56.5614 65.6201 58.5753V67.1919C65.6201 68.358 66.1781 69.4541 67.1216 70.14L71.9824 73.6752C73.6107 74.8593 75.8904 74.4996 77.075 72.8712C78.2591 71.2429 77.8989 68.9627 76.2705 67.7786L72.9113 65.3356V58.5753Z" fill="#6661E7"/>
<path fill-rule="evenodd" clip-rule="evenodd" d="M69.2654 92.6012C84.0305 92.6012 95.9996 80.6315 95.9996 65.867C95.9996 51.1019 84.0305 39.1328 69.2654 39.1328C54.5004 39.1328 42.5312 51.1019 42.5312 65.867C42.5312 80.6315 54.5004 92.6012 69.2654 92.6012ZM69.2654 85.31C80.0033 85.31 88.7085 76.6049 88.7085 65.867C88.7085 55.1286 80.0033 46.424 69.2654 46.424C58.5275 46.424 49.8224 55.1286 49.8224 65.867C49.8224 76.6049 58.5275 85.31 69.2654 85.31Z" fill="#6661E7"/>
</svg>

<svg id="date-icon" xmlns="http://www.w3.org/2000/svg" width="96" height="92.601" viewBox="0 0 96 92.601">
  <path id="Path_1" data-name="Path 1" d="M37.671,0A20.658,20.658,0,1,0,58.329,20.658,20.658,20.658,0,0,0,37.671,0ZM24.3,20.658A13.367,13.367,0,1,1,37.671,34.025,13.367,13.367,0,0,1,24.3,20.658Z" fill="#e44499" fill-rule="evenodd"/>
  <path id="Path_2" data-name="Path 2" d="M7.291,66.837A10.937,10.937,0,0,1,18.228,55.9h1.657a1.225,1.225,0,0,1,.377.06l4.207,1.374A42.518,42.518,0,0,0,34.6,59.324a1.467,1.467,0,0,0,1.516-1.158,33.776,33.776,0,0,1,1.427-4.628,1.041,1.041,0,0,0-.933-1.41A35.248,35.248,0,0,1,26.732,50.4l-4.207-1.374a8.517,8.517,0,0,0-2.64-.42H18.228A18.228,18.228,0,0,0,0,66.837v5.776a7.471,7.471,0,0,0,6.267,7.373,194.862,194.862,0,0,0,31.68,2.547,1,1,0,0,0,.873-1.461,33.816,33.816,0,0,1-1.841-4.442,2.034,2.034,0,0,0-1.888-1.406A187.641,187.641,0,0,1,7.442,72.79a.179.179,0,0,1-.151-.177Z" fill="#e44499"/>
  <path id="Path_3" data-name="Path 3" d="M72.911,58.575a3.646,3.646,0,0,0-7.291,0v8.617a3.645,3.645,0,0,0,1.5,2.948l4.861,3.535a3.645,3.645,0,1,0,4.288-5.9l-3.359-2.443Z" fill="#e44499"/>
  <path id="Path_4" data-name="Path 4" d="M69.265,92.6A26.734,26.734,0,1,0,42.531,65.867,26.734,26.734,0,0,0,69.265,92.6Zm0-7.291A19.443,19.443,0,1,0,49.822,65.867,19.443,19.443,0,0,0,69.265,85.31Z" fill="#e44499" fill-rule="evenodd"/>
</svg>
